X:421
T: DES LEBENS BLUME BLUEHET SCHON
N: F0774
O: Europa, Mitteleuropa, Deutschland
R: Geselligkeits -, Moral - Lied
M: 6/8
L: 1/8
K: Bb
F | B2Fd2B | A2ce2
c | Bfdcge | d3c2
f | edcBAG | FGAB2
c | d3d=ef | F3G2F | F4z
F | e2cAcF | f3-f2
e | dcBBcA | B3-B2
F | c2cc2d | e2dc2
f | f2BBcA | B4z

@@@ Tune index: 5852
